X:1
T:Title
%%score { ( 1 4 ) | ( 2 3 ) }
L:1/8
M:4/4
K:Ab
V:1 treble nm="Grand Piano"
V:4 treble 
V:2 bass 
V:3 bass 
V:1
 z4 z2[Q:1/4=100] [CE]2 | [Ec]3 [Ec] BB A>F | [CE]6 [CA]2 | G3 A B2 E2 | [CA]6 [CA]2 | %5
 [DA]3 [EG] [FB][FA][EG][DF] | [CE]2 [CA]2 [Ec]2 [Ec]2 | [=DB]3 F [B,DG]2 [DA]2 | [DB]6 z2 | %9
 [CA]4 z4 | [DF]>A G>B A4 | e4 z4 | [=Dc]>[DB] [DB]>[DF] B4 | E>F A>F E>F A2 | %14
[M:9/8] [EGB]>[EFA][B,EG]- [B,EG]/[B,FA]<[EGB][CAc]/ [Gd]3/2[EB]3/2 |[M:4/4] [Ee]2 [Ec]2 E2 B2 | %16
[M:3/4] A6 |] %17
V:2
 z4 z2 [A,,A,]2 | [A,,A,]3 [A,,A,] [E,G,E][E,G,D] [F,A,C]>[D,A,D] | [A,,A,]6 [A,,E,]2 | %3
 [E,B,]3 [E,C] [E,G,D]2 [E,G,D]2 | [A,,E,]6 [A,,E,]2 | [D,F,]3 [D,A,] [D,A,][D,A,][D,A,][D,A,] | %6
 [A,,A,]2 [A,,E,]2 [A,,A,]2 [F,A,]2 | z2 z =D z2 F,2 | [E,G,]2 E,2 E,2 z2 | %9
 A,,A,,A,,A,, [A,,A,]2 [A,,A,]2 | z z/[K:treble] F/ E>E [A,CE]4 | .[A,C]2 z2[K:bass] z4 | %12
 [B,,A,]>[B,,F,] [B,,B,]>[B,,A,] [E,G,E]4 | E,>F, A,>F, E,>F, A,2 | %14
[M:9/8] E,>E,E,- E,/E,<E,E,/ [E,B,]3/2[D,G,]3/2 |[M:4/4] [C,A,]2 [A,,A,]2 [E,G,]2 [E,G,D]2 | %16
[M:3/4] z E, F,F, E,2 |] %17
V:3
 x8 | x8 | x8 | x8 | x8 | x8 | x8 | [B,,A,]4 B,,4 | x8 | x8 | [D,A,]2[K:treble] [E,D]2 z4 | %11
 E-[A,E-][A,E-][A,E][K:bass] [A,E]2 [A,,A,]2 | x8 | x8 |[M:9/8] x9 |[M:4/4] x8 |[M:3/4] A,,6 |] %17
V:4
 x8 | x8 | x8 | x8 | x8 | x8 | x8 | x8 | z2 G,2 G,2 z2 | A,A,A,A, [CE]2 [CE]2 | x8 | %11
 z CCC c2 [CA]2 | x8 | x8 |[M:9/8] x9 |[M:4/4] x8 |[M:3/4] [A,C]C DD C2 |] %17

